icons/svg/icons8/climbing.svg

<svg width="26" height="26" viewBox="0 0 26 26" fill="none" xmlns="http://www.w3.org/2000/svg">
<path d="M12 5.81301C13.0013 5.81301 13.813 5.0013 13.813 4.00001C13.813 2.99872 13.0013 2.18701 12 2.18701C10.9987 2.18701 10.187 2.99872 10.187 4.00001C10.187 5.0013 10.9987 5.81301 12 5.81301Z" fill="#333333"/>
<path d="M14.764 6.32702L18.389 0.687015C18.389 0.687015 18.832 -0.142985 19.496 0.189015C20.071 0.477015 19.916 0.843015 19.723 1.36902C19.596 1.71102 16.483 7.77202 16.483 7.77202L15.844 12.501C15.844 12.501 14.252 13.795 11.061 13.795L10.145 9.61001C10.145 9.61001 8.10598 10.579 7.60598 10.782C7.10598 10.985 6.96898 10.988 6.30298 10.196C5.72498 9.50902 4.02398 7.07102 3.70298 6.50002C3.40798 5.97502 3.14098 5.46902 3.48398 5.23402C3.82698 4.99902 4.29798 5.13102 4.73398 5.70302C5.08198 6.16002 7.43798 8.54502 7.43798 8.54502C7.43798 8.54502 9.23798 7.50102 9.76898 7.26702C10.3 7.03302 10.671 7.02302 11.14 7.02302C11.854 7.02202 14.764 6.32702 14.764 6.32702Z" fill="#333333"/>
<path d="M10.7852 15.114C13.1462 15.114 15.5782 14.175 16.3722 13.684C17.1662 13.193 17.7992 12.453 17.7992 12.453C17.7992 12.453 18.4232 11.954 18.9852 12.203C19.5482 12.453 19.7352 13.141 19.7352 13.141L20.6282 18.738C20.6282 18.738 21.0872 20.662 20.2762 20.847C19.4632 21.035 18.9772 19.17 18.9772 19.17L18.0592 15.655L16.4092 16.926C16.4092 16.926 14.4632 17.953 12.3272 17.953C12.3272 17.953 10.0832 22.604 9.56923 23.523C9.05523 24.442 8.50622 26.172 7.56922 25.798C6.63122 25.425 7.21522 24.042 7.77222 22.549C8.44722 20.738 10.7852 15.114 10.7852 15.114Z" fill="#333333"/>
<path d="M18.5 10.5C18.5 10.5 23.5 7.688 23.5 0.5" stroke="#333333" stroke-miterlimit="10"/>
<path d="M15.5 25.5V16.5" stroke="#333333" stroke-miterlimit="10" stroke-linecap="round" stroke-linejoin="round"/>
</svg>

<?xml version="1.0" encoding="utf-8"?>
<!-- Generator: Adobe Illustrator 15.0.0, SVG Export Plug-In . SVG Version: 6.00 Build 0)  -->
<!DOCTYPE svg PUBLIC "-//W3C//DTD SVG 1.1//EN" "http://www.w3.org/Graphics/SVG/1.1/DTD/svg11.dtd">
<svg version="1.1" id="Layer_1" xmlns="http://www.w3.org/2000/svg" xmlns:xlink="http://www.w3.org/1999/xlink" x="0px" y="0px"
	 width="26px" height="26px" viewBox="0 0 26 26" enable-background="new 0 0 26 26" xml:space="preserve">
<rect fill="none" width="26" height="26"/>
<circle fill="#333333" cx="12" cy="4" r="1.813"/>
<path fill="#333333" d="M14.764,6.327l3.625-5.64c0,0,0.443-0.83,1.107-0.498c0.575,0.288,0.42,0.654,0.227,1.18
	c-0.127,0.342-3.24,6.403-3.24,6.403l-0.639,4.729c0,0-1.592,1.294-4.783,1.294L10.145,9.61c0,0-2.039,0.969-2.539,1.172
	s-0.637,0.206-1.303-0.586C5.725,9.509,4.024,7.071,3.703,6.5C3.408,5.975,3.141,5.469,3.484,5.234s0.814-0.103,1.25,0.469
	C5.082,6.16,7.438,8.545,7.438,8.545s1.8-1.044,2.331-1.278s0.902-0.244,1.371-0.244C11.854,7.022,14.764,6.327,14.764,6.327z"/>
<path fill="#333333" d="M10.785,15.114c2.361,0,4.793-0.939,5.587-1.43s1.427-1.231,1.427-1.231s0.624-0.499,1.186-0.25
	c0.563,0.25,0.75,0.938,0.75,0.938l0.893,5.597c0,0,0.459,1.924-0.352,2.109c-0.813,0.188-1.299-1.677-1.299-1.677l-0.918-3.515
	l-1.65,1.271c0,0-1.946,1.027-4.082,1.027c0,0-2.244,4.651-2.758,5.57s-1.063,2.649-2,2.275c-0.938-0.373-0.354-1.756,0.203-3.249
	C8.447,20.738,10.785,15.114,10.785,15.114z"/>
<path fill="none" stroke="#333333" stroke-miterlimit="10" d="M18.5,10.5c0,0,5-2.812,5-10"/>
<line fill="none" stroke="#333333" stroke-linecap="round" stroke-linejoin="round" stroke-miterlimit="10" x1="15.5" y1="25.5" x2="15.5" y2="16.5"/>
</svg>
